X: 137
T: Phoenix
M:4/4
L:1/8
Q:160
S:Playford
O:Manuscript
A:English
K:F
f2 c2 A2 F2|cdef g2 e2|fg a2 G2 F2|e3 d/2e/2 f4|f2 c2 A2 F2|cdef g2 e2| fg a2 g2 f2|e3 d/2e/2 f4:|
|:f2 c2 A2 F2|FGAB c2 A2|dBcA BGAF| E3 D/2E/2 F4 | f2 c2 A2 F2|FGAB c2 A2|dBcA BGAF| E3 D/2E/2 F4:|

